src/travel-walk.svg

<?xml version="1.0" encoding="UTF-8" standalone="no"?>
<svg width="20px" height="20px" viewBox="0 0 20 20" version="1.1" xmlns="http://www.w3.org/2000/svg" xmlns:xlink="http://www.w3.org/1999/xlink">
    <!-- Generator: Sketch 3.7.2 (28276) - http://www.bohemiancoding.com/sketch -->
    <title>travel-walk</title>
    <desc>Created with Sketch.</desc>
    <defs></defs>
    <g id="Page-1" stroke="none" stroke-width="1" fill="none" fill-rule="evenodd">
        <g id="travel-walk" fill="#000000">
            <path d="M11,7 L12.4428885,9.16433275 C12.7547607,9.63214111 13.4519098,10 14.0093689,10 L17,10 L17,8 L14,8 L12.5571115,5.83566725 C12.2452393,5.36785889 11.625859,4.75057268 11.1643327,4.4428885 L9.83566725,3.5571115 C9.36785889,3.24523926 8.61517502,3.23089499 8.14046936,3.51571839 L4,6 L4,11 L6,11 L6,7 L8,6 L5,20 L7,20 L9.35294118,12.3529412 L11,14 L11,20 L13,20 L13,12 L10.2941176,9.29411765 L11,7 Z M12,4 C13.1045695,4 14,3.1045695 14,2 C14,0.8954305 13.1045695,0 12,0 C10.8954305,0 10,0.8954305 10,2 C10,3.1045695 10.8954305,4 12,4 L12,4 Z" id="Combined-Shape"></path>
        </g>
    </g>
</svg>

<svg xmlns="http://www.w3.org/2000/svg" viewBox="0 0 20 20"><path d="M11 7l1.44 2.16c.31.47 1.01.84 1.57.84H17V8h-3l-1.44-2.16a5.94 5.94 0 0 0-1.4-1.4l-1.32-.88a1.72 1.72 0 0 0-1.7-.04L4 6v5h2V7l2-1-3 14h2l2.35-7.65L11 14v6h2v-8l-2.7-2.7L11 7zm1-3a2 2 0 1 0 0-4 2 2 0 0 0 0 4z"/></svg>
